Quickit/src/img/information-img.svg

<svg width="309" height="284" viewBox="0 0 309 284" fill="none" xmlns="http://www.w3.org/2000/svg">
<path d="M134.508 180.464C127.44 180.464 120.797 176.063 116.278 168.369C112.319 161.647 110.135 152.83 110.135 143.573C110.135 134.301 112.319 125.499 116.278 118.776C120.797 111.098 127.456 106.682 134.508 106.682C141.576 106.682 148.219 111.082 152.738 118.776C156.697 125.499 158.881 134.316 158.881 143.573C158.881 152.83 156.697 161.647 152.738 168.369C148.219 176.048 141.576 180.464 134.508 180.464Z" fill="#1F2025" stroke="white" stroke-width="3" stroke-miterlimit="10"/>
<path d="M134.508 173.999C144.409 173.999 152.435 160.377 152.435 143.573C152.435 126.769 144.409 113.146 134.508 113.146C124.608 113.146 116.581 126.769 116.581 143.573C116.581 160.377 124.608 173.999 134.508 173.999Z" stroke="white" stroke-width="3" stroke-miterlimit="10"/>
<path d="M135.979 106.742L241.327 115.65C241.327 115.65 251.504 122.798 251.504 143.573C251.504 164.348 241.327 171.48 241.327 171.48L135.979 180.403" stroke="white" stroke-width="3" stroke-miterlimit="10"/>
<path d="M244.163 118.519L290.967 122.479C290.967 122.479 298.657 127.867 298.657 143.573C298.657 159.279 290.967 164.651 290.967 164.651L244.163 168.612" stroke="white" stroke-width="3" stroke-miterlimit="10"/>
<path d="M296.458 130.567L302.873 131.114C302.873 131.114 307.408 134.301 307.408 143.573C307.408 152.845 302.873 156.032 302.873 156.032L296.458 156.578" stroke="white" stroke-width="3" stroke-miterlimit="10"/>
<path d="M81.4097 180.464C74.342 180.464 67.699 176.063 63.1794 168.369C59.2209 161.647 57.0369 152.83 57.0369 143.573C57.0369 134.301 59.2209 125.499 63.1794 118.776C67.699 111.098 74.3572 106.682 81.4097 106.682C88.4774 106.682 95.1204 111.082 99.64 118.776C103.599 125.499 105.783 134.316 105.783 143.573C105.783 152.83 103.599 161.647 99.64 168.369C95.1052 176.048 88.4622 180.464 81.4097 180.464Z" fill="#1F2025" stroke="white" stroke-width="3" stroke-miterlimit="10"/>
<path d="M81.4097 173.999C91.3105 173.999 99.3367 160.377 99.3367 143.573C99.3367 126.769 91.3105 113.146 81.4097 113.146C71.5089 113.146 63.4827 126.769 63.4827 143.573C63.4827 160.377 71.5089 173.999 81.4097 173.999Z" stroke="white" stroke-width="3" stroke-miterlimit="10"/>
<path d="M123.892 176.928L82.8657 180.403" stroke="white" stroke-width="3" stroke-miterlimit="10"/>
<path d="M82.8657 106.742L123.664 110.187" stroke="white" stroke-width="3" stroke-miterlimit="10"/>
<path d="M163.307 216.081L165.34 221.362L170.633 223.396L165.34 225.429L163.307 230.725L161.275 225.444L155.997 223.396L161.275 221.362L163.307 216.081Z" fill="#F12052"/>
<path d="M40.6016 70.085L42.6339 75.3811L47.9271 77.4146L42.6339 79.4481L40.6016 84.7443L38.5693 79.4481L33.2913 77.4146L38.5693 75.3811L40.6016 70.085Z" fill="#F12052"/>
<path d="M182.222 63.0068L184.255 68.2878L189.533 70.3365L184.255 72.37L182.222 77.651L180.175 72.37L174.897 70.3365L180.19 68.2878L182.222 63.0068Z" fill="#F12052"/>
<path d="M298.657 194.67L300.689 199.966L305.967 202L300.689 204.033L298.657 209.329L296.625 204.033L291.332 202L296.625 199.966L298.657 194.67Z" fill="#F12052"/>
<path d="M254.686 228.448H253.442V283.868H254.686V228.448Z" fill="white"/>
<path d="M281.767 256.779V255.534H226.378V256.779H281.767Z" fill="white"/>
<path d="M234.917 236.129L234.037 237.009L273.202 276.196L274.082 275.317L234.917 236.129Z" fill="white"/>
<path d="M274.09 236.998L273.21 236.118L234.045 275.306L234.924 276.186L274.09 236.998Z" fill="white"/>
<path d="M254.064 261.105C256.795 261.105 259.009 258.89 259.009 256.158C259.009 253.426 256.795 251.211 254.064 251.211C251.334 251.211 249.12 253.426 249.12 256.158C249.12 258.89 251.334 261.105 254.064 261.105Z" fill="white"/>
<path d="M189.563 2.82227V27.9526C189.563 30.3654 191.52 32.3382 193.946 32.3382H244.087C246.499 32.3382 248.471 34.2959 248.471 36.7239V65.041C248.471 67.4539 250.427 69.4267 252.854 69.4267H301.963" stroke="white" stroke-width="3" stroke-miterlimit="10"/>
<path d="M189.563 4.9012C190.711 4.9012 191.641 3.97039 191.641 2.82218C191.641 1.67397 190.711 0.743164 189.563 0.743164C188.416 0.743164 187.485 1.67397 187.485 2.82218C187.485 3.97039 188.416 4.9012 189.563 4.9012Z" fill="white"/>
<path d="M301.933 71.5057C303.081 71.5057 304.011 70.5749 304.011 69.4267C304.011 68.2785 303.081 67.3477 301.933 67.3477C300.785 67.3477 299.855 68.2785 299.855 69.4267C299.855 70.5749 300.785 71.5057 301.933 71.5057Z" fill="white"/>
<path d="M2.33618 214.024H21.9467C24.5705 214.024 26.6938 216.149 26.6938 218.774V235.027C26.6938 237.652 28.8172 239.777 31.441 239.777H80.8388C83.4627 239.777 85.586 241.901 85.586 244.527V272.115C85.586 274.741 87.7093 276.865 90.3332 276.865H173.098" stroke="white" stroke-width="3" stroke-miterlimit="10"/>
<path d="M2.33614 216.103C3.48369 216.103 4.41396 215.173 4.41396 214.024C4.41396 212.876 3.48369 211.945 2.33614 211.945C1.18858 211.945 0.258301 212.876 0.258301 214.024C0.258301 215.173 1.18858 216.103 2.33614 216.103Z" fill="white"/>
<path d="M173.082 278.93C174.23 278.93 175.16 277.999 175.16 276.851C175.16 275.702 174.23 274.771 173.082 274.771C171.935 274.771 171.005 275.702 171.005 276.851C171.005 277.999 171.935 278.93 173.082 278.93Z" fill="white"/>
</svg>

<svg xmlns="http://www.w3.org/2000/svg" xmlns:xlink="http://www.w3.org/1999/xlink" width="309" height="284" fill="none" xmlns:v="https://vecta.io/nano"><g stroke="#fff" stroke-width="3" stroke-miterlimit="10"><path d="M134.508 180.464c-7.068 0-13.711-4.401-18.23-12.095-3.959-6.722-6.143-15.539-6.143-24.796 0-9.272 2.184-18.074 6.143-24.797 4.519-7.678 11.178-12.094 18.23-12.094 7.068 0 13.711 4.4 18.23 12.094 3.959 6.723 6.143 15.54 6.143 24.797s-2.184 18.074-6.143 24.796c-4.519 7.679-11.162 12.095-18.23 12.095z" fill="#1f2025"/><path d="M134.508 173.999c9.901 0 17.927-13.622 17.927-30.426s-8.026-30.427-17.927-30.427-17.927 13.623-17.927 30.427 8.027 30.426 17.927 30.426zm1.471-67.257l105.348 8.908s10.177 7.148 10.177 27.923-10.177 27.907-10.177 27.907l-105.348 8.923"/><path d="M244.163 118.519l46.804 3.96s7.69 5.388 7.69 21.094-7.69 21.078-7.69 21.078l-46.804 3.961m52.295-38.045l6.415.547s4.535 3.187 4.535 12.459-4.535 12.459-4.535 12.459l-6.415.546"/><path d="M81.41 180.464c-7.068 0-13.711-4.401-18.23-12.095-3.959-6.722-6.142-15.539-6.142-24.796 0-9.272 2.184-18.074 6.142-24.797 4.52-7.678 11.178-12.094 18.23-12.094 7.068 0 13.711 4.4 18.23 12.094 3.959 6.723 6.143 15.54 6.143 24.797s-2.184 18.074-6.143 24.796c-4.535 7.679-11.178 12.095-18.23 12.095z" fill="#1f2025"/><path d="M81.41 173.999c9.901 0 17.927-13.622 17.927-30.426s-8.026-30.427-17.927-30.427-17.927 13.623-17.927 30.427 8.026 30.426 17.927 30.426zm42.482 2.929l-41.026 3.475m0-73.661l40.798 3.445"/></g><path d="M163.307 216.081l2.033 5.281 5.293 2.034-5.293 2.033-2.033 5.296-2.032-5.281-5.278-2.048 5.278-2.034 2.032-5.281zM40.602 70.085l2.032 5.296 5.293 2.033-5.293 2.034-2.032 5.296-2.032-5.296-5.278-2.034 5.278-2.033 2.032-5.296zm141.62-7.078l2.033 5.281 5.278 2.049-5.278 2.034-2.033 5.281-2.047-5.281-5.278-2.034 5.293-2.049 2.032-5.281zM298.657 194.67l2.032 5.296 5.278 2.034-5.278 2.033-2.032 5.296-2.032-5.296-5.293-2.033 5.293-2.034 2.032-5.296z" fill="#f12052"/><g fill="#fff"><path d="M254.686 228.448h-1.244v55.42h1.244v-55.42z"/><path d="M281.767 256.779v-1.245h-55.389v1.245h55.389z"/><path d="M234.917 236.129l-.88.88 39.165 39.187.88-.879-39.165-39.188z"/><path d="M274.09 236.998l-.88-.88-39.165 39.188.879.88 39.166-39.188z"/><path d="M254.064 261.105c2.731 0 4.945-2.215 4.945-4.947s-2.214-4.947-4.945-4.947-4.944 2.215-4.944 4.947 2.214 4.947 4.944 4.947z"/></g><path d="M189.563 2.822v25.13a4.39 4.39 0 0 0 4.383 4.386h50.141a4.39 4.39 0 0 1 4.384 4.386v28.317c0 2.413 1.956 4.386 4.383 4.386h49.109" stroke="#fff" stroke-width="3" stroke-miterlimit="10"/><g fill="#fff"><use xlink:href="#B"/><use xlink:href="#B" x="112.37" y="66.605"/></g><path d="M2.336 214.024h19.611c2.624 0 4.747 2.125 4.747 4.75v16.253c0 2.625 2.123 4.75 4.747 4.75h49.398c2.624 0 4.747 2.124 4.747 4.75v27.588c0 2.626 2.123 4.75 4.747 4.75h82.765" stroke="#fff" stroke-width="3" stroke-miterlimit="10"/><g fill="#fff"><use xlink:href="#B" x="-187.227" y="211.202"/><path d="M173.082 278.93a2.08 2.08 0 0 0 2.078-2.079 2.08 2.08 0 0 0-2.078-2.08 2.08 2.08 0 0 0-2.077 2.08 2.08 2.08 0 0 0 2.077 2.079z"/></g><defs ><path id="B" d="M189.563 4.901a2.08 2.08 0 0 0 2.078-2.079 2.08 2.08 0 0 0-2.078-2.079 2.08 2.08 0 0 0-2.078 2.079 2.08 2.08 0 0 0 2.078 2.079z"/></defs></svg>
